Papirus/48x48/apps/punes.svg

<svg xmlns="http://www.w3.org/2000/svg" width="48" height="48" version="1.1">
 <rect style="opacity:0.2" width="40" height="40" x="4" y="5" rx="2" ry="2"/>
 <rect style="fill:#e4e4e4" width="40" height="40" x="4" y="4" rx="2" ry="2"/>
 <path style="opacity:0.1" d="m 13,13 v 10 h 2 v -3 c 0,-0.270833 0.09375,-0.505208 0.28125,-0.703125 C 15.479167,19.098958 15.71875,19 16,19 h 5 c 0.552083,0 1.020833,-0.192708 1.40625,-0.578125 C 22.802083,18.026042 23,17.552083 23,17 V 15 C 23,14.447917 22.802083,13.979167 22.40625,13.59375 22.010417,13.197917 21.541667,13 21,13 Z m 11,0 v 8 c 0,0.552083 0.192708,1.026042 0.578125,1.421875 C 24.963542,22.807292 25.4375,23 26,23 h 6 c 0.552083,0 1.020833,-0.192708 1.40625,-0.578125 C 33.802083,22.026042 34,21.552083 34,21 v -8 h -2 v 7 c 0,0.28125 -0.09896,0.520833 -0.296875,0.71875 C 31.505208,20.90625 31.270833,21 31,21 H 27 C 26.71875,21 26.479167,20.90625 26.28125,20.71875 26.09375,20.520833 26,20.28125 26,20 v -7 z m -8,2 h 4 c 0.270833,0 0.505208,0.09896 0.703125,0.296875 C 20.901042,15.494792 21,15.729167 21,16 c 0,0.28125 -0.09896,0.520833 -0.296875,0.71875 C 20.505208,16.90625 20.270833,17 20,17 H 16 C 15.71875,17 15.479167,16.90625 15.28125,16.71875 15.09375,16.520833 15,16.28125 15,16 15,15.729167 15.09375,15.494792 15.28125,15.296875 15.479167,15.098958 15.71875,15 16,15 Z M 8,27 v 10 h 2 v -8 h 5 c 0.270833,0 0.505208,0.09896 0.703125,0.296875 C 15.901042,29.494792 16,29.729167 16,30 v 7 h 2 V 29 C 18,28.458333 17.802083,27.989583 17.40625,27.59375 17.020833,27.197917 16.552083,27 16,27 Z m 11,0 v 8 c 0,0.552083 0.192708,1.026042 0.578125,1.421875 C 19.963542,36.807292 20.4375,37 21,37 h 8 V 35 H 22 C 21.71875,35 21.479167,34.90625 21.28125,34.71875 21.09375,34.520833 21,34.28125 21,34 21,33.729167 21.09375,33.494792 21.28125,33.296875 21.479167,33.098958 21.71875,33 22,33 h 7 V 31 H 22 C 21.71875,31 21.479167,30.90625 21.28125,30.71875 21.09375,30.520833 21,30.28125 21,30 21,29.729167 21.09375,29.494792 21.28125,29.296875 21.479167,29.098958 21.71875,29 22,29 h 7 v -2 z m 13,0 c -0.552083,0 -1.026041,0.197917 -1.421875,0.59375 C 30.192708,27.979167 30,28.447917 30,29 v 2 c 0,0.552083 0.192708,1.026042 0.578125,1.421875 C 30.963542,32.807292 31.437501,33 32,33 h 5 c 0.270833,0 0.505208,0.09896 0.703125,0.296875 C 37.901042,33.494792 38,33.729167 38,34 c 0,0.28125 -0.09896,0.520833 -0.296875,0.71875 C 37.505208,34.90625 37.270833,35 37,35 h -7 v 2 h 8 c 0.541667,0 1.010417,-0.192708 1.40625,-0.578125 C 39.802083,36.036458 40,35.5625 40,35 V 33 C 40,32.458333 39.802083,31.989583 39.40625,31.59375 39.020833,31.197917 38.552083,31 38,31 H 33 C 32.718749,31 32.479167,30.90625 32.28125,30.71875 32.09375,30.520833 32,30.28125 32,30 32,29.729167 32.09375,29.494792 32.28125,29.296875 32.479167,29.098958 32.718749,29 33,29 h 7 v -2 z"/>
 <path style="opacity:0.2;fill:#ffffff" d="m 5.9998,4 c -1.108,0 -2,0.892 -2,2 v 1 c 0,-1.108 0.892,-2 2,-2 h 36 c 1.108,0 2,0.892 2,2 V 6 c 0,-1.108 -0.892,-2 -2,-2 z"/>
 <path style="fill:#007f0e" d="M 13 12 L 13 22 L 15 22 L 15 19 C 15 18.729167 15.09375 18.494792 15.28125 18.296875 C 15.479167 18.098958 15.71875 18 16 18 L 21 18 C 21.552083 18 22.020833 17.807292 22.40625 17.421875 C 22.802083 17.026042 23 16.552083 23 16 L 23 14 C 23 13.447917 22.802083 12.979167 22.40625 12.59375 C 22.010417 12.197917 21.541667 12 21 12 L 13 12 z M 24 12 L 24 20 C 24 20.552083 24.192708 21.026042 24.578125 21.421875 C 24.963542 21.807292 25.4375 22 26 22 L 32 22 C 32.552083 22 33.020833 21.807292 33.40625 21.421875 C 33.802083 21.026042 34 20.552083 34 20 L 34 12 L 32 12 L 32 19 C 32 19.28125 31.901042 19.520833 31.703125 19.71875 C 31.505208 19.90625 31.270833 20 31 20 L 27 20 C 26.71875 20 26.479167 19.90625 26.28125 19.71875 C 26.09375 19.520833 26 19.28125 26 19 L 26 12 L 24 12 z M 16 14 L 20 14 C 20.270833 14 20.505208 14.098958 20.703125 14.296875 C 20.901042 14.494792 21 14.729167 21 15 C 21 15.28125 20.901042 15.520833 20.703125 15.71875 C 20.505208 15.90625 20.270833 16 20 16 L 16 16 C 15.71875 16 15.479167 15.90625 15.28125 15.71875 C 15.09375 15.520833 15 15.28125 15 15 C 15 14.729167 15.09375 14.494792 15.28125 14.296875 C 15.479167 14.098958 15.71875 14 16 14 z M 8 26 L 8 36 L 10 36 L 10 28 L 15 28 C 15.270833 28 15.505208 28.098958 15.703125 28.296875 C 15.901042 28.494792 16 28.729167 16 29 L 16 36 L 18 36 L 18 28 C 18 27.458333 17.802083 26.989583 17.40625 26.59375 C 17.020833 26.197917 16.552083 26 16 26 L 8 26 z M 19 26 L 19 34 C 19 34.552083 19.192708 35.026042 19.578125 35.421875 C 19.963542 35.807292 20.4375 36 21 36 L 29 36 L 29 34 L 22 34 C 21.71875 34 21.479167 33.90625 21.28125 33.71875 C 21.09375 33.520833 21 33.28125 21 33 C 21 32.729167 21.09375 32.494792 21.28125 32.296875 C 21.479167 32.098958 21.71875 32 22 32 L 29 32 L 29 30 L 22 30 C 21.71875 30 21.479167 29.90625 21.28125 29.71875 C 21.09375 29.520833 21 29.28125 21 29 C 21 28.729167 21.09375 28.494792 21.28125 28.296875 C 21.479167 28.098958 21.71875 28 22 28 L 29 28 L 29 26 L 19 26 z M 32 26 C 31.447917 26 30.973959 26.197917 30.578125 26.59375 C 30.192708 26.979167 30 27.447917 30 28 L 30 30 C 30 30.552083 30.192708 31.026042 30.578125 31.421875 C 30.963542 31.807292 31.437501 32 32 32 L 37 32 C 37.270833 32 37.505208 32.098958 37.703125 32.296875 C 37.901042 32.494792 38 32.729167 38 33 C 38 33.28125 37.901042 33.520833 37.703125 33.71875 C 37.505208 33.90625 37.270833 34 37 34 L 30 34 L 30 36 L 38 36 C 38.541667 36 39.010417 35.807292 39.40625 35.421875 C 39.802083 35.036458 40 34.5625 40 34 L 40 32 C 40 31.458333 39.802083 30.989583 39.40625 30.59375 C 39.020833 30.197917 38.552083 30 38 30 L 33 30 C 32.718749 30 32.479167 29.90625 32.28125 29.71875 C 32.09375 29.520833 32 29.28125 32 29 C 32 28.729167 32.09375 28.494792 32.28125 28.296875 C 32.479167 28.098958 32.718749 28 33 28 L 40 28 L 40 26 L 32 26 z"/>
</svg>

<svg xmlns="http://www.w3.org/2000/svg" width="48" height="48" version="1.1">
 <rect style="opacity:0.2" width="40" height="40" x="4" y="5" rx="2" ry="2"/>
 <rect style="fill:#e4e4e4" width="40" height="40" x="4" y="4" rx="2" ry="2"/>
 <path style="opacity:0.1" d="M 13,13 V 23 H 15 V 20 C 15,20 15,19 16,19 H 21 C 22.2,19 23,18 23,17 V 15 C 23,14 22.2,13 21,13 Z M 24,13 V 21 C 24,22.2 25,23 26,23 H 32 C 33,23 34,22.2 34,21 V 13 H 32 V 20 C 32,21 31,21 31,21 H 27 C 27,21 26,21 26,20 V 13 Z M 16,15 H 20 C 20,15 21,15 21,16 21,17 20,17 20,17 H 16 C 16,17 15,17 15,16 15,15 16,15 16,15 Z M 8,27 V 37 H 10 V 29 H 15 C 16,29 16,30 16,30 V 37 H 18 V 29 C 18,28 17.2,27 16,27 Z M 19,27 V 35 C 19,36 19.8,37 21,37 H 29 V 35 H 22 C 22,35 21,35 21,34 21,33 22,33 22,33 H 29 V 31 H 22 C 22,31 21,31 21,30 21,29 22,29 22,29 H 29 V 27 Z M 32,27 C 30.8,27 30,28 30,29 V 31 C 30,32 30.8,33 32,33 H 37 C 37,33 38,33 38,34 38,35 37,35 37,35 H 30 V 37 H 38 C 39.2,37 40,36 40,35 V 33 C 40,32 39.2,31 38,31 H 33 C 33,31 32,31 32,30 32,29 33,29 33,29 H 40 V 27 Z"/>
 <path style="fill:#007f0e" d="M 13,12 V 22 H 15 V 19 C 15,19 15,18 16,18 H 21 C 22.2,18 23,17 23,16 V 14 C 23,13 22.2,12 21,12 Z M 24,12 V 20 C 24,21.2 25,22 26,22 H 32 C 33,22 34,21.2 34,20 V 12 H 32 V 19 C 32,20 31,20 31,20 H 27 C 27,20 26,20 26,19 V 12 Z M 16,14 H 20 C 20,14 21,14 21,15 21,16 20,16 20,16 H 16 C 16,16 15,16 15,15 15,14 16,14 16,14 Z M 8,26 V 36 H 10 V 28 H 15 C 16,28 16,29 16,29 V 36 H 18 V 28 C 18,27 17.2,26 16,26 Z M 19,26 V 34 C 19,35 19.8,36 21,36 H 29 V 34 H 22 C 22,34 21,34 21,33 21,32 22,32 22,32 H 29 V 30 H 22 C 22,30 21,30 21,29 21,28 22,28 22,28 H 29 V 26 Z M 32,26 C 30.8,26 30,27 30,28 V 30 C 30,31 30.8,32 32,32 H 37 C 37,32 38,32 38,33 38,34 37,34 37,34 H 30 V 36 H 38 C 39.2,36 40,35 40,34 V 32 C 40,31 39.2,30 38,30 H 33 C 33,30 32,30 32,29 32,28 33,28 33,28 H 40 V 26 Z"/>
 <path style="fill:#ffffff;opacity:0.2" d="M 6 4 C 4.892 4 4 4.892 4 6 L 4 7 C 4 5.892 4.892 5 6 5 L 42 5 C 43.108 5 44 5.892 44 7 L 44 6 C 44 4.892 43.108 4 42 4 L 6 4 z"/>
</svg>
